Adwaita++-Light/panel/22/guitarix-tray.svg

<svg height="22" width="22" xmlns="http://www.w3.org/2000/svg">
  <g fill="#444">
    <path d="m3.8007813 8c-.4432001 0-.8007813.3770191-.8007813.8457031v9.3085939c0 .468684.3575812.845703.8007813.845703h14.3984377c.4432 0 .800781-.377019.800781-.845703v-9.3085939c0-.468684-.357581-.8457031-.800781-.8457031zm3.6992187 2a3.5 3.5 0 0 1 3.5 3.5 3.5 3.5 0 0 1 3.5-3.5 3.5 3.5 0 0 1 3.5 3.5 3.5 3.5 0 0 1 -3.5 3.5 3.5 3.5 0 0 1 -3.5-3.5 3.5 3.5 0 0 1 -3.5 3.5 3.5 3.5 0 0 1 -3.5-3.5 3.5 3.5 0 0 1 3.5-3.5zm0 2a1.5 1.5 0 0 0 -1.5 1.5 1.5 1.5 0 0 0 1.5 1.5 1.5 1.5 0 0 0 1.5-1.5 1.5 1.5 0 0 0 -1.5-1.5zm7 0a1.5 1.5 0 0 0 -1.5 1.5 1.5 1.5 0 0 0 1.5 1.5 1.5 1.5 0 0 0 1.5-1.5 1.5 1.5 0 0 0 -1.5-1.5z"/>
    <path d="m3.8007813 3c-.4432001 0-.8007813.3192878-.8007813.7148438v3.5703124c0 .3955561.3575812.7148438.8007813.7148438h14.3984377c.4432 0 .800781-.3192878.800781-.7148438v-3.5703124c0-.395556-.357581-.7148438-.800781-.7148438zm1.0703125 1h12.2578122c.482534 0 .871094.3018313.871094.6757812v1.6484376c0 .3739499-.38856.6757812-.871094.6757812h-12.2578122c-.4825341 0-.8710938-.3018313-.8710938-.6757812v-1.6484376c0-.37395.3885597-.6757812.8710938-.6757812zm.6289062 1a.5.5 0 0 0 -.5.5.5.5 0 0 0 .5.5.5.5 0 0 0 .5-.5.5.5 0 0 0 -.5-.5zm2 0a.5.5 0 0 0 -.5.5.5.5 0 0 0 .5.5.5.5 0 0 0 .5-.5.5.5 0 0 0 -.5-.5zm2 0a.5.5 0 0 0 -.5.5.5.5 0 0 0 .5.5.5.5 0 0 0 .5-.5.5.5 0 0 0 -.5-.5zm6.5 0v1h1v-1z"/>
  </g>
</svg>

<svg xmlns="http://www.w3.org/2000/svg" width="22" height="22" version="1.1">
 <defs>
  <style id="current-color-scheme" type="text/css">
   .ColorScheme-Text { color:#444444; } .ColorScheme-Highlight { color:#4285f4; }
  </style>
 </defs>
 <path style="fill:currentColor" class="ColorScheme-Text" d="M 3.8007813,8 C 3.3575812,8 3,8.3770191 3,8.8457031 V 18.154297 C 3,18.622981 3.3575812,19 3.8007813,19 H 18.199219 C 18.642419,19 19,18.622981 19,18.154297 V 8.8457031 C 19,8.3770191 18.642419,8 18.199219,8 Z M 7.5,10 A 3.5,3.5 0 0 1 11,13.5 3.5,3.5 0 0 1 14.5,10 3.5,3.5 0 0 1 18,13.5 3.5,3.5 0 0 1 14.5,17 3.5,3.5 0 0 1 11,13.5 3.5,3.5 0 0 1 7.5,17 3.5,3.5 0 0 1 4,13.5 3.5,3.5 0 0 1 7.5,10 Z m 0,2 A 1.5,1.5 0 0 0 6,13.5 1.5,1.5 0 0 0 7.5,15 1.5,1.5 0 0 0 9,13.5 1.5,1.5 0 0 0 7.5,12 Z m 7,0 A 1.5,1.5 0 0 0 13,13.5 1.5,1.5 0 0 0 14.5,15 1.5,1.5 0 0 0 16,13.5 1.5,1.5 0 0 0 14.5,12 Z"/>
 <path style="fill:currentColor" class="ColorScheme-Text" d="M 3.8007813,3 C 3.3575812,3 3,3.3192878 3,3.7148438 V 7.2851562 C 3,7.6807123 3.3575812,8 3.8007813,8 H 18.199219 C 18.642419,8 19,7.6807122 19,7.2851562 V 3.7148438 C 19,3.3192878 18.642419,3 18.199219,3 Z M 4.8710938,4 H 17.128906 C 17.61144,4 18,4.3018313 18,4.6757812 V 6.3242188 C 18,6.6981687 17.61144,7 17.128906,7 H 4.8710938 C 4.3885597,7 4,6.6981687 4,6.3242188 V 4.6757812 C 4,4.3018312 4.3885597,4 4.8710938,4 Z M 5.5,5 A 0.5,0.5 0 0 0 5,5.5 0.5,0.5 0 0 0 5.5,6 0.5,0.5 0 0 0 6,5.5 0.5,0.5 0 0 0 5.5,5 Z m 2,0 A 0.5,0.5 0 0 0 7,5.5 0.5,0.5 0 0 0 7.5,6 0.5,0.5 0 0 0 8,5.5 0.5,0.5 0 0 0 7.5,5 Z m 2,0 A 0.5,0.5 0 0 0 9,5.5 0.5,0.5 0 0 0 9.5,6 0.5,0.5 0 0 0 10,5.5 0.5,0.5 0 0 0 9.5,5 Z M 16,5 v 1 h 1 V 5 Z"/>
</svg>
